2 Export/Icons/Rounded/Search.svg

<svg xmlns="http://www.w3.org/2000/svg" xmlns:xlink="http://www.w3.org/1999/xlink" width="24" height="24" viewBox="0 0 24 24">
  <defs>
    <path id="search-a" d="M15.5 14h-.79l-.28-.27a6.5 6.5 0 0 0 1.48-5.34c-.47-2.78-2.79-5-5.59-5.34a6.505 6.505 0 0 0-7.27 7.27c.34 2.8 2.56 5.12 5.34 5.59a6.5 6.5 0 0 0 5.34-1.48l.27.28v.79l4.25 4.25c.41.41 1.08.41 1.49 0 .41-.41.41-1.08 0-1.49L15.5 14zm-6 0C7.01 14 5 11.99 5 9.5S7.01 5 9.5 5 14 7.01 14 9.5 11.99 14 9.5 14z"/>
  </defs>
  <g fill="none" fill-rule="evenodd">
    <polygon points="0 0 24 0 24 24 0 24"/>
    <mask id="search-b" fill="#fff">
      <use xlink:href="#search-a"/>
    </mask>
    <use fill="#000" xlink:href="#search-a"/>
    <g fill="#000" mask="url(#search-b)">
      <rect width="24" height="24"/>
    </g>
  </g>
</svg>

<svg xmlns="http://www.w3.org/2000/svg" xmlns:xlink="http://www.w3.org/1999/xlink" width="24" height="24" viewBox="0 0 24 24">
  <defs>
    <path id="search-a" d="M15.5,14 L14.71,14 L14.43,13.73 C15.63,12.33 16.25,10.42 15.91,8.39 C15.44,5.61 13.12,3.39 10.32,3.05 C6.09,2.53 2.53,6.09 3.05,10.32 C3.39,13.12 5.61,15.44 8.39,15.91 C10.42,16.25 12.33,15.63 13.73,14.43 L14,14.71 L14,15.5 L18.25,19.75 C18.66,20.16 19.33,20.16 19.74,19.75 C20.15,19.34 20.15,18.67 19.74,18.26 L15.5,14 Z M9.5,14 C7.01,14 5,11.99 5,9.5 C5,7.01 7.01,5 9.5,5 C11.99,5 14,7.01 14,9.5 C14,11.99 11.99,14 9.5,14 Z"/>
  </defs>
  <g fill="none" fill-rule="evenodd">
    <polygon points="0 0 24 0 24 24 0 24"/>
    <mask id="search-b" fill="#fff">
      <use xlink:href="#search-a"/>
    </mask>
    <use fill="#000" xlink:href="#search-a"/>
    <g fill="#000" mask="url(#search-b)">
      <rect width="24" height="24"/>
    </g>
  </g>
</svg>
